X:3273
T:Compilments to Maybelle
R:march
C:Brenda Stubbert, SOCAN
O:20th century Cape Breton
S:Tune of the Month, December 1998
D:Some Tasty Tunes, Brenda Stubbert, 1999
A:<http://www.capebretonet.com/Music/Stubbert>
N: Composed for pianist Maybelle Chisholm
N:Contacts ...
N:Recordings and bookings
N:..... <brenda@cranfordpub.com
N:Tune books and related recordings
N:..... Cranford Publications <http://www.cranfordpub.com>
H:Copyrights:Published by Stubbert Music, and Cranford Publications
Z:This abc transcription is for personal use only,
Z:provided this notice remains attached.
Z:Used by permission of the composer and publisher.
Z:Paul Stewart Cranford <psc@cranfordpub.com>
Q:288
L:1/8
M:C|
K:Amix
c>d|e>Ac<e a2 ^g<f|e<ad<f e2 d>c|B>GB<d g2 f>e|d>GB>c d2 c>d|!
e>Ac<e a2 ^g<f|e<ad<f e2 d>c|B>GB>a g>ed<B|A4 A2:|!
|:c>d|e>Ac<e a>gf>d|e>Ac>d e>dc>A|B<GB>d g>ef<d|e>fg>e d<gB>d|!
e>Ac<e a>gf>d|e>Ac>d e>dc>A|B>GB>a g>ed<B|A4 A2:|!


